**kern	**kern
*part1	*part1
*staff2	*staff1
*I"Piano	*
*clefF4	*clefG2
*k[f#c#g#d#a#e#]	*k[f#c#g#d#a#e#]
=1	=1
4.D#	8r
.	(8A#L 8e# 8g#
.	8c##XJ)
=	=
4.DD#	8d#L 8f#
.	8A#<
.	8F#J<
=	=
4.DD# 4.D#	8r
.	(8BL 8f#
.	8f#J) 8b
=	=
4.GG# 4.G#	8r
.	(8c#L 8e#
.	8e#J) 8b
=	=
4.AA# 4.A#	8r
.	(8c#L 8f#
.	8f#J) 8cc#
=	=
4.BB#X 4.B#X	8r
.	(8d#L 8f# 8g#
.	8f#J) 8g# 8dd#
=	=
4.C# 4.c#	8r
.	(8c#L 8f# 8a#
.	8f#J) 8a# 8cc#
=	=
4.C# 4.G# 4.B 4.c#	8r
.	(8c#L 8e# 8g#
.	8e#J) 8g# 8b 8cc#
=	=
*-	*-
!!!system-decoration: {(s1,s2)}
!!!RDF**kern: < = below
